X: 62
T: Kiss the Lass Ye Like the Best
S:MacDonald - Skye Collection
N:pg.62
M:C|
L:1/8
K:B Minor
f|(Bcde) f2 ea|c<AeA aAec|(Bcde) faea|c<A a>c B/B/B f2:|
|:B/B/B (b^a) bBbf|=a>baf defd|efab faea|c<A a>c B/B/B f2|
B/B/B (b^a) bBbf|=a>baf defd|efba faea|c<A a>a B/B/B f2:|


